img/flex-img.svg

<svg width="41" height="42" viewBox="0 0 41 42" fill="none" xmlns="http://www.w3.org/2000/svg">
<path d="M1.60938 30.6349V38.7556H12.9697V30.6349L7.28954 27.5201L1.60938 30.6349Z" stroke="#1A2578" stroke-width="1.5" stroke-linecap="round" stroke-linejoin="round"/>
<path d="M9.38116 32.4267H5.4209V38.7538H9.38116V32.4267Z" stroke="#1A2578" stroke-width="1.5" stroke-linecap="round" stroke-linejoin="round"/>
<path d="M20.4865 30.8749C25.7816 30.8749 30.0741 26.5824 30.0741 21.2874C30.0741 15.9923 25.7816 11.6998 20.4865 11.6998C15.1914 11.6998 10.8989 15.9923 10.8989 21.2874C10.8989 26.5824 15.1914 30.8749 20.4865 30.8749Z" stroke="#BF0830" stroke-width="1.5" stroke-linecap="round" stroke-linejoin="round"/>
<path d="M14.3164 23.1627L18.0925 26.9372L26.8474 18.1823L24.8792 16.2142L18.0477 23.0442L16.2557 21.2522L14.3164 23.1627Z" stroke="#BF0830" stroke-width="1.5" stroke-linecap="round" stroke-linejoin="round"/>
<path d="M39.4204 2.487H28.2202V13.4662H39.4204V2.487Z" stroke="#1A2578" stroke-width="1.5" stroke-linecap="round" stroke-linejoin="round"/>
<path d="M35.9131 8.8125H31.7271V13.4662H35.9131V8.8125Z" stroke="#1A2578" stroke-width="1.5" stroke-linecap="round" stroke-linejoin="round"/>
<path d="M3.74756 20.9992C3.74746 16.7904 5.33277 12.7361 8.18771 9.64377C11.0427 6.55141 14.9577 4.64795 19.153 4.31256" stroke="#1A2578" stroke-width="1.5" stroke-linecap="round" stroke-linejoin="round"/>
<path d="M15.7999 9.97511L14.8471 9.19363L18.6968 4.50314L13.7373 1.00567L14.4483 0L20.4888 4.26133L15.7999 9.97511Z" fill="#1A2578"/>
<path d="M37.2282 20.9993C37.2284 25.2082 35.6431 29.2627 32.7882 32.3553C29.9333 35.4479 26.0182 37.3517 21.8228 37.6875" stroke="#1A2578" stroke-width="1.5" stroke-linecap="round" stroke-linejoin="round"/>
<path d="M25.1757 32.0249L26.1285 32.8048L22.2788 37.4969L27.2383 40.9944L26.5273 42L20.4868 37.7387L25.1757 32.0249Z" fill="#1A2578"/>
</svg>

<svg width="41" height="42" fill="none" xmlns="http://www.w3.org/2000/svg"><path d="M1.61 30.635v8.12h11.36v-8.12L7.29 27.52l-5.68 3.115z" stroke="#1A2578" stroke-width="1.5" stroke-linecap="round" stroke-linejoin="round"/><path d="M9.381 32.427h-3.96v6.327h3.96v-6.327z" stroke="#1A2578" stroke-width="1.5" stroke-linecap="round" stroke-linejoin="round"/><path d="M20.486 30.875a9.588 9.588 0 1 0 0-19.175 9.588 9.588 0 1 0 0 19.175z" stroke="#BF0830" stroke-width="1.5" stroke-linecap="round" stroke-linejoin="round"/><path d="m14.316 23.163 3.777 3.774 8.754-8.755-1.968-1.968-6.831 6.83-1.792-1.792-1.94 1.91z" stroke="#BF0830" stroke-width="1.5" stroke-linecap="round" stroke-linejoin="round"/><path d="M39.42 2.487h-11.2v10.98h11.2V2.486z" stroke="#1A2578" stroke-width="1.5" stroke-linecap="round" stroke-linejoin="round"/><path d="M35.913 8.813h-4.186v4.653h4.186V8.813zM3.748 21A16.74 16.74 0 0 1 19.153 4.312" stroke="#1A2578" stroke-width="1.5" stroke-linecap="round" stroke-linejoin="round"/><path d="m15.8 9.975-.953-.781 3.85-4.69-4.96-3.498L14.448 0l6.04 4.261L15.8 9.975z" fill="#1A2578"/><path d="M37.228 21a16.74 16.74 0 0 1-15.405 16.688" stroke="#1A2578" stroke-width="1.5" stroke-linecap="round" stroke-linejoin="round"/><path d="m25.176 32.025.953.78-3.85 4.692 4.96 3.497L26.526 42l-6.04-4.261 4.689-5.714z" fill="#1A2578"/></svg>
